X:1
T:The Slighted Stranger
T:Charles Hutchinson Gabriel, 1908
T:The Slighted Stranger
T:Public Domain
T:Public Domain
T:Public Domain
C:Charles Hutchinson Gabriel, 1908
Z:Public Domain
%%score ( 1 2 ) ( 3 4 )
L:1/8
M:4/4
K:Bb
V:1 treble 
V:2 treble 
V:3 bass 
V:4 bass 
V:1
 [DF]2 | [DF]3 [DG] [DG]2 [DA]2 | [DG]3 [DF] [DF]2 [B,D]2 | [DF]2 [Fd]2 [DB]2 [DG]2 | [EA]6 [EF]2 | %5
w: 1.~A|Stran- ger stands out-|side the door, And|longs thy guest to|be; He|
w: 2.~From|lone- ly, dark Geth-|sem- a- ne, Thru|Pi- late’s hall of|shame, Up|
w: 3.~Yet|still He waits and|calls to thee, Al-|though ye scarce can|hear The|
 [EF]3 [EG] [EG]2 [EA]2 | [EG]3 [EF] [EF]2 [EG]2 | [EA]2 [EB]2 [Ec]2 [=E^c]2 | [Fd]6 [DF]2 | %9
w: knows thy name, for|o’er and o’er He|soft- ly calls to|thee! His|
w: o- ver cru- el|Cal- va- ry, To|thee in love He|came! De-|
w: plead- ing voice, so|oft- en has It|fall- en on thine|ear: O|
 [DF]3 [DG] [DG]2 [DF]2 | [Fd]2 [Fd]2 [Ge]2 [Fd]2 | [=Ec]2 [EG]2 [FA]2 [GB]2 | [Ac]6 [Ac]2 | %13
w: hands are pierced, His|brow is torn, His|face is sad, but|sweet— It|
w: spised! Re- ject- ed!|Cru- ci- fied! O|love, O grace un-|known, That|
w: soul, a- rise and|let Him in, Lest|from the bolt- ed|door In|
 [Bc]3 [C=E] [Bc]2 [Bd]2 | [Ac]3 [FA] [Ac]2 [DGB]2 | [CFA]3 [DB] [CA]2 [B,=EG]2 | (A,B,CD E2) z2 || %17
w: is the Lord of|Par- a- dise! A-|rise, thy Sav- ior|greet. * * * *|
w: He should still re-|mem- ber thee, And|claim thee for His|own! * * * *|
w: sor- row He should|turn a- way, To|call for thee no|more. * * * *|
"^Refrain" [Fd]3 [Ec] [DB]2 [B,D][CE] | [DF]2 [EG]2 [EG]2 [DF]2 | [EB]2 [EA]2 [EA]3 [Ec] | %20
w: |||
w: |||
w: |||
 [Ec]2 [DB]2 [DB]4 | [Fd]3 [Ec] [DB]2 [B,D][CE] | [DF]2 [EG]2 [EG]2 [DF]2 | %23
w: |||
w: |||
w: |||
 [EG]2 [Ge]2 [Fd]3 [DB] | [Fd]2 [Ec]2 [DB]2 |] %25
w: ||
w: ||
w: ||
V:2
 x2 | x8 | x8 | x8 | x8 | x8 | x8 | x8 | x8 | x8 | x8 | x8 | x8 | x8 | x8 | x8 | F6 x2 || x8 | x8 | %19
 x8 | x8 | x8 | x8 | x8 | x6 |] %25
V:3
 F,2 | F,3 G, G,2 A,2 | G,3 F, F,2 D,2 | F,2 D2 B,2 G,2 | [C,F,A,]6 F,2 | F,3 G, G,2 A,2 | %6
w: ~|~ ~ ~ ~|~ ~ ~ ~|~ ~ * ~|~ ~|~ ~ ~ ~|
 G,3 F, F,2 G,2 | A,2 B,2 C2 ^C2 | [B,,D]6 F,2 | F,3 G, G,2 F,2 | D2 D2 E2 D2 | C2 G,2 A,2 B,2 | %12
w: ~ * ~ ~|~ ~ ~ ~|~ ~|~ ~ ~ ~|~ ~ ~ ~|~ ~ ~ ~|
 [F,,F,C]6 C2 | C3 =E, C2 D2 | C3 A, C2 [B,,B,]2 | A,3 B, A,2 G,2 | (F,G,A,B, C2) z2 || %17
w: ~ ~|~ ~ ~ ~|wound- ed for thy|gres- sions; He was|èd * * * *|
 [B,,B,]3 [B,,B,] [B,,F,]2 [B,,F,][B,,F,] | [B,,B,]2 [B,,B,]2 [B,,B,]2 [B,,B,]2 | %19
w: thy sin; Yet He stands|at thy heart’s door|
 [F,C]2 [F,C]2 [F,C]3 [F,A,] | [B,,B,]2 [B,,F,]2 [B,,F,]4 | %21
w: plead- ing, Why, O|why not let|
 [B,,B,]3 [B,,B,] [B,,F,]2 [B,,F,][B,,F,] | [B,,B,]2 [B,,B,]2 [B,,B,]2 [B,,B,]2 | %23
w: Him in? * * *||
 [E,B,]2 [E,B,]2 [F,B,]3 [F,B,] | [F,B,]2 [F,A,]2 [B,,F,]2 |] %25
w: ||
V:4
 x2 | B,,8- | B,,8- | B,,8 | x8 | F,,8- | F,,8- | F,,8 | x8 | B,,8 | [G,,G,]8 | C,8 | x8 | %13
w: |~||~||~|~|||~|~|~||
 G,,4 C,4 | F,,6 x2 | C,8 | F,6 x2 || x8 | x8 | x8 | x8 | x8 | x8 | x8 | x6 |] %25
w: He was|trans-|bruis-|for|||||||||

